X:1161
T:Quick Step,
T:W.S. Royals.
M:6/8
L:1/8
Q:3/8=84
I: :: ::
Z:Jack Campin * www.campin.me.uk * 2009
K:E Minor
G|G2E G2A|B2c d2B|GAG dcB|ABG FED|E2E G2A|BAB g2f|e^de Bed|e3 e2:|
B|e2e efg|B2B Bcd|GAG dcB|ABG FED|E2E G2A|BAB g2f|e^de Bed|e3 e2:|

